brandFactory_export/3.Masa/Desconexion_3Masa.svg

<?xml version="1.0" encoding="UTF-8"?>
<svg width="24px" height="24px" viewBox="0 0 24 24" version="1.1" xmlns="http://www.w3.org/2000/svg" xmlns:xlink="http://www.w3.org/1999/xlink">
    <title>3.Masa/Desconexion_3Masa</title>
    <g id="Symbols" stroke="none" stroke-width="1" fill="none" fill-rule="evenodd">
        <g id="3.Masa/Desconexion_3Masa" fill="#5CB615" fill-rule="nonzero">
            <path d="M11.6537815,19.9630252 L11.6537815,8.38655462 C11.6537815,7.61680672 11.492437,7.0789916 11.1529412,6.7394958 C10.8134454,6.4 10.2722689,6.22857143 9.49915966,6.22857143 L3.68739496,6.22857143 C2.92773109,6.22857143 2.39663866,6.4 2.04369748,6.74957983 C1.69411765,7.09915966 1.53277311,7.63697479 1.53277311,8.38655462 L1.53277311,19.9630252 C1.53277311,20.7327731 1.69411765,21.2840336 2.04369748,21.6235294 C2.38319328,21.9529412 2.92436975,22.1243697 3.68739496,22.1243697 L9.49915966,22.1243697 C10.2621849,22.1243697 10.8,21.9529412 11.1428571,21.6235294 C11.4957983,21.2840336 11.6537815,20.7327731 11.6537815,19.9630252 Z M14.789916,0 C20.5008403,0 23.6571429,3.14957983 23.6571429,8.85714286 C23.6571429,14.5546218 20.5008403,17.6941176 14.789916,17.6941176 C14.2184874,17.6941176 13.6773109,17.6537815 13.1563025,17.5932773 L13.1563025,19.9630252 C13.1563025,21.1630252 12.8470588,22.0504202 12.205042,22.6823529 C11.5731092,23.3109244 10.6823529,23.6235294 9.49915966,23.6235294 L3.68739496,23.6235294 C2.50420168,23.6235294 1.62352941,23.3142857 0.981512605,22.6823529 C0.339495798,22.0504202 0.0302521008,21.1630252 0.0302521008,19.9630252 L0.0302521008,8.38655462 C0.0302521008,7.21680672 0.339495798,6.3394958 0.971428571,5.69747899 C1.62016807,5.0487395 2.50420168,4.72941176 3.68739496,4.72941176 L6.63193277,4.72941176 C7.85882353,1.65042017 10.6621849,0 14.789916,0 Z M17.005042,12.097479 C17.1529412,12.2420168 17.3445378,12.3159664 17.5361345,12.3159664 C17.7310924,12.3159664 17.9193277,12.2420168 18.0672269,12.097479 C18.3596639,11.805042 18.3596639,11.3310924 18.0672269,11.0352941 L15.7882353,8.76302521 L15.7882353,5.69747899 C15.7882353,5.28403361 15.4521008,4.94789916 15.0352941,4.94789916 C14.6218487,4.94789916 14.2823529,5.28403361 14.2823529,5.69747899 L14.2823529,9.07563025 C14.2823529,9.27394958 14.3630252,9.46554622 14.5042017,9.60672269 L17.005042,12.097479 Z M6.59495798,18.8403361 C7.21008403,18.8403361 7.57647059,19.2067227 7.57647059,19.8252101 C7.57647059,20.1277311 7.49243697,20.3663866 7.3210084,20.5411765 C7.14957983,20.7159664 6.89747899,20.810084 6.59495798,20.810084 C6.29243697,20.810084 6.04033613,20.7159664 5.86890756,20.5411765 C5.69747899,20.3663866 5.61344538,20.1277311 5.61344538,19.8252101 C5.61344538,19.2067227 5.97983193,18.8403361 6.59495798,18.8403361 Z" id="Desconexion_3Masa"></path>
        </g>
    </g>
</svg>

<svg width="24" height="24" viewBox="0 0 24 24" xmlns="http://www.w3.org/2000/svg"><path d="M11.654 19.963V8.387c0-.77-.162-1.308-.501-1.648-.34-.339-.88-.51-1.654-.51H3.687c-.76 0-1.29.171-1.643.52-.35.35-.511.888-.511 1.638v11.576c0 .77.161 1.321.51 1.66.34.33.881.501 1.644.501H9.5c.763 0 1.301-.171 1.644-.5.353-.34.51-.891.51-1.661zM14.79 0c5.71 0 8.867 3.15 8.867 8.857 0 5.698-3.156 8.837-8.867 8.837-.572 0-1.113-.04-1.634-.1v2.369c0 1.2-.309 2.087-.951 2.72-.632.628-1.523.94-2.706.94H3.687c-1.183 0-2.063-.309-2.705-.94-.643-.633-.952-1.52-.952-2.72V8.387c0-1.17.31-2.048.941-2.69.65-.648 1.533-.968 2.716-.968h2.945C7.859 1.65 10.662 0 14.79 0zm2.215 12.097a.754.754 0 001.062 0 .753.753 0 000-1.062l-2.279-2.272V5.697a.753.753 0 00-1.506 0v3.379c0 .198.081.39.222.53l2.501 2.491zM6.595 18.84c.615 0 .981.367.981.985 0 .303-.084.541-.255.716-.171.175-.424.27-.726.27-.303 0-.555-.095-.726-.27-.172-.175-.256-.413-.256-.716 0-.618.367-.985.982-.985z" fill="#5CB615" fill-rule="nonzero"/></svg>
